images/ckin.svg

<?xml version="1.0" standalone="no"?>
<!DOCTYPE svg PUBLIC "-//W3C//DTD SVG 1.1//EN" "http://www.w3.org/Graphics/SVG/1.1/DTD/svg11.dtd" >
<svg xmlns="http://www.w3.org/2000/svg">
<metadata>Generated by IcoMoon</metadata>
<defs>
<font id="ckin" horiz-adv-x="1024">
<font-face units-per-em="1024" ascent="960" descent="-64" />
<missing-glyph horiz-adv-x="1024" />
<glyph unicode="&#x20;" horiz-adv-x="512" d="" />
<glyph unicode="&#xe900;" glyph-name="expand" horiz-adv-x="878" d="M431.429 347.428c0-4.571-2.286-9.714-5.714-13.143l-189.714-189.714 82.286-82.286c6.857-6.857 10.857-16 10.857-25.714 0-20-16.571-36.571-36.571-36.571h-256c-20 0-36.571 16.571-36.571 36.571v256c0 20 16.571 36.571 36.571 36.571 9.714 0 18.857-4 25.714-10.857l82.286-82.286 189.714 189.714c3.429 3.429 8.571 5.714 13.143 5.714s9.714-2.286 13.143-5.714l65.143-65.143c3.429-3.429 5.714-8.571 5.714-13.143zM877.714 841.143v-256c0-20-16.571-36.571-36.571-36.571-9.714 0-18.857 4-25.714 10.857l-82.286 82.286-189.714-189.714c-3.429-3.429-8.571-5.714-13.143-5.714s-9.714 2.286-13.143 5.714l-65.143 65.143c-3.429 3.429-5.714 8.571-5.714 13.143s2.286 9.714 5.714 13.143l189.714 189.714-82.286 82.286c-6.857 6.857-10.857 16-10.857 25.714 0 20 16.571 36.571 36.571 36.571h256c20 0 36.571-16.571 36.571-36.571z" />
<glyph unicode="&#xe901;" glyph-name="compress" horiz-adv-x="878" d="M438.857 402.286v-256c0-20-16.571-36.571-36.571-36.571-9.714 0-18.857 4-25.714 10.857l-82.286 82.286-189.714-189.714c-3.429-3.429-8.571-5.714-13.143-5.714s-9.714 2.286-13.143 5.714l-65.143 65.143c-3.429 3.429-5.714 8.571-5.714 13.143s2.286 9.714 5.714 13.143l189.714 189.714-82.286 82.286c-6.857 6.857-10.857 16-10.857 25.714 0 20 16.571 36.571 36.571 36.571h256c20 0 36.571-16.571 36.571-36.571zM870.286 786.286c0-4.571-2.286-9.714-5.714-13.143l-189.714-189.714 82.286-82.286c6.857-6.857 10.857-16 10.857-25.714 0-20-16.571-36.571-36.571-36.571h-256c-20 0-36.571 16.571-36.571 36.571v256c0 20 16.571 36.571 36.571 36.571 9.714 0 18.857-4 25.714-10.857l82.286-82.286 189.714 189.714c3.429 3.429 8.571 5.714 13.143 5.714s9.714-2.286 13.143-5.714l65.143-65.143c3.429-3.429 5.714-8.571 5.714-13.143z" />
<glyph unicode="&#xea1c;" glyph-name="play" d="M192 832l640-384-640-384z" />
<glyph unicode="&#xea1d;" glyph-name="pause" d="M128 832h320v-768h-320zM576 832h320v-768h-320z" />
<glyph unicode="&#xea1e;" glyph-name="stop" d="M128 832h768v-768h-768z" />
<glyph unicode="&#xea1f;" glyph-name="backward" d="M576 800v-320l320 320v-704l-320 320v-320l-352 352z" />
<glyph unicode="&#xea20;" glyph-name="forward" d="M512 96v320l-320-320v704l320-320v320l352-352z" />
<glyph unicode="&#xea26;" glyph-name="volume-high" horiz-adv-x="1088" d="M890.040 37.96c-12.286 0-24.566 4.686-33.942 14.056-18.744 18.746-18.744 49.136 0 67.882 87.638 87.642 135.904 204.16 135.904 328.1 0 123.938-48.266 240.458-135.904 328.098-18.744 18.746-18.744 49.138 0 67.882s49.138 18.744 67.882 0c105.77-105.772 164.022-246.4 164.022-395.98s-58.252-290.208-164.022-395.98c-9.372-9.372-21.656-14.058-33.94-14.058zM719.53 128.47c-12.286 0-24.566 4.686-33.942 14.056-18.744 18.744-18.744 49.136 0 67.882 131.006 131.006 131.006 344.17 0 475.176-18.744 18.746-18.744 49.138 0 67.882 18.744 18.742 49.138 18.744 67.882 0 81.594-81.59 126.53-190.074 126.53-305.466 0-115.39-44.936-223.876-126.53-305.47-9.372-9.374-21.656-14.060-33.94-14.060v0zM549.020 218.98c-12.286 0-24.568 4.686-33.942 14.058-18.746 18.746-18.746 49.134 0 67.88 81.1 81.1 81.1 213.058 0 294.156-18.746 18.746-18.746 49.138 0 67.882s49.136 18.744 67.882 0c118.53-118.53 118.53-311.392 0-429.922-9.372-9.368-21.656-14.054-33.94-14.054zM416.006 0c-8.328 0-16.512 3.25-22.634 9.374l-246.626 246.626h-114.746c-17.672 0-32 14.326-32 32v320c0 17.672 14.328 32 32 32h114.746l246.626 246.628c9.154 9.154 22.916 11.89 34.874 6.936 11.958-4.952 19.754-16.622 19.754-29.564v-832c0-12.944-7.796-24.612-19.754-29.564-3.958-1.64-8.118-2.436-12.24-2.436z" />
<glyph unicode="&#xea27;" glyph-name="volume-medium" d="M719.53 128.47c-12.286 0-24.566 4.686-33.942 14.056-18.744 18.744-18.744 49.136 0 67.882 131.006 131.006 131.006 344.17 0 475.176-18.744 18.746-18.744 49.138 0 67.882 18.744 18.742 49.138 18.744 67.882 0 81.594-81.59 126.53-190.074 126.53-305.466 0-115.39-44.936-223.876-126.53-305.47-9.372-9.374-21.656-14.060-33.94-14.060v0zM549.020 218.98c-12.286 0-24.566 4.686-33.942 14.058-18.746 18.746-18.746 49.134 0 67.88 81.1 81.1 81.1 213.058 0 294.156-18.746 18.746-18.746 49.138 0 67.882s49.136 18.744 67.882 0c118.53-118.53 118.53-311.392 0-429.922-9.372-9.368-21.656-14.054-33.94-14.054zM416.006 0c-8.328 0-16.512 3.25-22.634 9.374l-246.626 246.626h-114.746c-17.672 0-32 14.326-32 32v320c0 17.672 14.328 32 32 32h114.746l246.626 246.628c9.154 9.154 22.916 11.89 34.874 6.936 11.958-4.952 19.754-16.622 19.754-29.564v-832c0-12.944-7.796-24.612-19.754-29.564-3.958-1.64-8.118-2.436-12.24-2.436z" />
<glyph unicode="&#xea28;" glyph-name="volume-low" d="M549.020 218.98c-12.286 0-24.566 4.686-33.942 14.058-18.746 18.746-18.746 49.134 0 67.88 81.1 81.1 81.1 213.058 0 294.156-18.746 18.746-18.746 49.138 0 67.882s49.136 18.744 67.882 0c118.53-118.53 118.53-311.392 0-429.922-9.372-9.368-21.656-14.054-33.94-14.054zM416.006 0c-8.328 0-16.512 3.25-22.634 9.374l-246.626 246.626h-114.746c-17.672 0-32 14.326-32 32v320c0 17.672 14.328 32 32 32h114.746l246.626 246.628c9.154 9.154 22.916 11.89 34.874 6.936 11.958-4.952 19.754-16.622 19.754-29.564v-832c0-12.944-7.796-24.612-19.754-29.564-3.958-1.64-8.118-2.436-12.24-2.436z" />
<glyph unicode="&#xea2a;" glyph-name="volume-mute" d="M960 340.852v-84.852h-84.852l-107.148 107.148-107.148-107.148h-84.852v84.852l107.148 107.148-107.148 107.148v84.852h84.852l107.148-107.148 107.148 107.148h84.852v-84.852l-107.148-107.148 107.148-107.148zM416.006 0c-8.328 0-16.512 3.25-22.634 9.374l-246.626 246.626h-114.746c-17.672 0-32 14.326-32 32v320c0 17.672 14.328 32 32 32h114.746l246.626 246.628c9.154 9.154 22.916 11.89 34.874 6.936 11.958-4.952 19.754-16.622 19.754-29.564v-832c0-12.944-7.796-24.612-19.754-29.564-3.958-1.64-8.118-2.436-12.24-2.436z" />
</font></defs></svg>

<svg xmlns="http://www.w3.org/2000/svg"><defs><font id="ckin" horiz-adv-x="1024"><font-face units-per-em="1024" ascent="960" descent="-64"/><glyph horiz-adv-x="512"/><glyph unicode="" glyph-name="expand" horiz-adv-x="878" d="M431.429 347.428c0-4.571-2.286-9.714-5.714-13.143L236.001 144.571l82.286-82.286c6.857-6.857 10.857-16 10.857-25.714 0-20-16.571-36.571-36.571-36.571h-256C16.573 0 .002 16.571.002 36.571v256c0 20 16.571 36.571 36.571 36.571 9.714 0 18.857-4 25.714-10.857l82.286-82.286 189.714 189.714c3.429 3.429 8.571 5.714 13.143 5.714s9.714-2.286 13.143-5.714l65.143-65.143c3.429-3.429 5.714-8.571 5.714-13.143zm446.285 493.715v-256c0-20-16.571-36.571-36.571-36.571-9.714 0-18.857 4-25.714 10.857l-82.286 82.286-189.714-189.714c-3.429-3.429-8.571-5.714-13.143-5.714s-9.714 2.286-13.143 5.714L452 517.144c-3.429 3.429-5.714 8.571-5.714 13.143s2.286 9.714 5.714 13.143l189.714 189.714-82.286 82.286c-6.857 6.857-10.857 16-10.857 25.714 0 20 16.571 36.571 36.571 36.571h256c20 0 36.571-16.571 36.571-36.571z"/><glyph unicode="" glyph-name="compress" horiz-adv-x="878" d="M438.857 402.286v-256c0-20-16.571-36.571-36.571-36.571-9.714 0-18.857 4-25.714 10.857l-82.286 82.286L104.572 13.144c-3.429-3.429-8.571-5.714-13.143-5.714s-9.714 2.286-13.143 5.714L13.143 78.287c-3.429 3.429-5.714 8.571-5.714 13.143s2.286 9.714 5.714 13.143l189.714 189.714-82.286 82.286c-6.857 6.857-10.857 16-10.857 25.714 0 20 16.571 36.571 36.571 36.571h256c20 0 36.571-16.571 36.571-36.571zm431.429 384c0-4.571-2.286-9.714-5.714-13.143L674.858 583.429l82.286-82.286c6.857-6.857 10.857-16 10.857-25.714 0-20-16.571-36.571-36.571-36.571h-256c-20 0-36.571 16.571-36.571 36.571v256c0 20 16.571 36.571 36.571 36.571 9.714 0 18.857-4 25.714-10.857l82.286-82.286 189.714 189.714c3.429 3.429 8.571 5.714 13.143 5.714s9.714-2.286 13.143-5.714l65.143-65.143c3.429-3.429 5.714-8.571 5.714-13.143z"/><glyph unicode="" glyph-name="play" d="m192 832 640-384L192 64z"/><glyph unicode="" glyph-name="pause" d="M128 832h320V64H128zm448 0h320V64H576z"/><glyph unicode="" glyph-name="stop" d="M128 832h768V64H128z"/><glyph unicode="" glyph-name="backward" d="M576 800V480l320 320V96L576 416V96L224 448z"/><glyph unicode="" glyph-name="forward" d="M512 96v320L192 96v704l320-320v320l352-352z"/><glyph unicode="" glyph-name="volume-high" horiz-adv-x="1088" d="M890.04 37.96c-12.286 0-24.566 4.686-33.942 14.056-18.744 18.746-18.744 49.136 0 67.882 87.638 87.642 135.904 204.16 135.904 328.1 0 123.938-48.266 240.458-135.904 328.098-18.744 18.746-18.744 49.138 0 67.882s49.138 18.744 67.882 0c105.77-105.772 164.022-246.4 164.022-395.98S1029.75 157.79 923.98 52.018c-9.372-9.372-21.656-14.058-33.94-14.058zm-170.51 90.51c-12.286 0-24.566 4.686-33.942 14.056-18.744 18.744-18.744 49.136 0 67.882 131.006 131.006 131.006 344.17 0 475.176-18.744 18.746-18.744 49.138 0 67.882 18.744 18.742 49.138 18.744 67.882 0C835.064 671.876 880 563.392 880 448c0-115.39-44.936-223.876-126.53-305.47-9.372-9.374-21.656-14.06-33.94-14.06zm-170.51 90.51c-12.286 0-24.568 4.686-33.942 14.058-18.746 18.746-18.746 49.134 0 67.88 81.1 81.1 81.1 213.058 0 294.156-18.746 18.746-18.746 49.138 0 67.882s49.136 18.744 67.882 0c118.53-118.53 118.53-311.392 0-429.922-9.372-9.368-21.656-14.054-33.94-14.054zM416.006 0a31.985 31.985 0 0 0-22.634 9.374L146.746 256H32c-17.672 0-32 14.326-32 32v320c0 17.672 14.328 32 32 32h114.746l246.626 246.628a31.996 31.996 0 0 0 34.874 6.936A31.999 31.999 0 0 0 448 864V32a31.997 31.997 0 0 0-31.994-32z"/><glyph unicode="" glyph-name="volume-medium" d="M719.53 128.47c-12.286 0-24.566 4.686-33.942 14.056-18.744 18.744-18.744 49.136 0 67.882 131.006 131.006 131.006 344.17 0 475.176-18.744 18.746-18.744 49.138 0 67.882 18.744 18.742 49.138 18.744 67.882 0C835.064 671.876 880 563.392 880 448c0-115.39-44.936-223.876-126.53-305.47-9.372-9.374-21.656-14.06-33.94-14.06zm-170.51 90.51c-12.286 0-24.566 4.686-33.942 14.058-18.746 18.746-18.746 49.134 0 67.88 81.1 81.1 81.1 213.058 0 294.156-18.746 18.746-18.746 49.138 0 67.882s49.136 18.744 67.882 0c118.53-118.53 118.53-311.392 0-429.922-9.372-9.368-21.656-14.054-33.94-14.054zM416.006 0a31.985 31.985 0 0 0-22.634 9.374L146.746 256H32c-17.672 0-32 14.326-32 32v320c0 17.672 14.328 32 32 32h114.746l246.626 246.628a31.996 31.996 0 0 0 34.874 6.936A31.999 31.999 0 0 0 448 864V32a31.997 31.997 0 0 0-31.994-32z"/><glyph unicode="" glyph-name="volume-low" d="M549.02 218.98c-12.286 0-24.566 4.686-33.942 14.058-18.746 18.746-18.746 49.134 0 67.88 81.1 81.1 81.1 213.058 0 294.156-18.746 18.746-18.746 49.138 0 67.882s49.136 18.744 67.882 0c118.53-118.53 118.53-311.392 0-429.922-9.372-9.368-21.656-14.054-33.94-14.054zM416.006 0a31.985 31.985 0 0 0-22.634 9.374L146.746 256H32c-17.672 0-32 14.326-32 32v320c0 17.672 14.328 32 32 32h114.746l246.626 246.628a31.996 31.996 0 0 0 34.874 6.936A31.999 31.999 0 0 0 448 864V32a31.997 31.997 0 0 0-31.994-32z"/><glyph unicode="" glyph-name="volume-mute" d="M960 340.852V256h-84.852L768 363.148 660.852 256H576v84.852L683.148 448 576 555.148V640h84.852L768 532.852 875.148 640H960v-84.852L852.852 448 960 340.852zM416.006 0a31.985 31.985 0 0 0-22.634 9.374L146.746 256H32c-17.672 0-32 14.326-32 32v320c0 17.672 14.328 32 32 32h114.746l246.626 246.628a31.996 31.996 0 0 0 34.874 6.936A31.999 31.999 0 0 0 448 864V32a31.997 31.997 0 0 0-31.994-32z"/></font></defs></svg>
